X:1
T:Shawmut, SM
T:Shawmut, SM
T:Arranged by Lowell Mason, 1844
T:Public Domain Courtesy of the Cyber Hymnal™
C:Arranged by Lowell Mason, 1844
Z:Public Domain
Z:Courtesy of the Cyber Hymnal™
%%score 1 2
L:1/8
Q:1/4=110
M:2/4
K:D
V:1 treble 
V:2 bass 
V:1
 [DF]2 [DF][DF] | [EA]2 [EA]2 | [DF]4 | [FB]2 [FB][FB] | [FB]2 [F^A]2 | [FB]4 | [DF]2 [DF][DF] | %7
 [DF]3 [DF] | [EA]2 [EA]2 | [DF]4 | [DF]2 [DF][CE] | [B,D]2 [CE]2 | [DF]4 |] %13
V:2
 [D,A,]2 [D,A,][D,A,] | [A,,C]2 [A,,C]2 | [D,A,]4 | [B,,D]2 [B,,D][B,,D] | [F,D]2 [F,C]2 | %5
 [B,,D]4 | [B,,B,]2 [B,,B,][B,,B,] | [B,,B,]3 [B,,B,] | [A,,C]2 [A,,C]2 | [D,A,]4 | %10
 [D,A,]2 [D,A,][A,,G,] | [B,,F,]2 [A,,A,]2 | [D,A,]4 |] %13

